storage/app/icons/phosphoricons/light/dice-five-light.svg

<svg xmlns="http://www.w3.org/2000/svg" fill="currentColor" viewBox="0 0 256 256"><path d="M192 34H64a30 30 0 0 0-30 30v128a30 30 0 0 0 30 30h128a30 30 0 0 0 30-30V64a30 30 0 0 0-30-30m18 158a18 18 0 0 1-18 18H64a18 18 0 0 1-18-18V64a18 18 0 0 1 18-18h128a18 18 0 0 1 18 18ZM102 92a10 10 0 1 1-10-10 10 10 0 0 1 10 10m36 36a10 10 0 1 1-10-10 10 10 0 0 1 10 10m36-36a10 10 0 1 1-10-10 10 10 0 0 1 10 10m-72 72a10 10 0 1 1-10-10 10 10 0 0 1 10 10m72 0a10 10 0 1 1-10-10 10 10 0 0 1 10 10"/></svg>

<svg xmlns="http://www.w3.org/2000/svg" viewBox="0 0 256 256" fill="currentColor"><path d="M192,34H64A30,30,0,0,0,34,64V192a30,30,0,0,0,30,30H192a30,30,0,0,0,30-30V64A30,30,0,0,0,192,34Zm18,158a18,18,0,0,1-18,18H64a18,18,0,0,1-18-18V64A18,18,0,0,1,64,46H192a18,18,0,0,1,18,18ZM102,92A10,10,0,1,1,92,82,10,10,0,0,1,102,92Zm36,36a10,10,0,1,1-10-10A10,10,0,0,1,138,128Zm36-36a10,10,0,1,1-10-10A10,10,0,0,1,174,92Zm-72,72a10,10,0,1,1-10-10A10,10,0,0,1,102,164Zm72,0a10,10,0,1,1-10-10A10,10,0,0,1,174,164Z"/></svg>
